X: 19
T: Merrily Kiss The Quaker
Z: Romford Ceilidh Band
S: https://thesession.org/tunes/70#setting53417
R: slide
M: 12/8
L: 1/8
K: Gmaj
K: Gmaj
|:D|GAB D2B c2A BGE|GAB DEG A2B AGE|
GAB D2B c2A BGE|GAB D2 EG3G2:|
|:A|BGG AGG BGG AGE|GAB DEG A2B AGA|
BGG AGG BGG AGE|GAB D2E G3 G2:|
|:d|g3aga bge dBd|g3 gab a3 age|
gag fgf ege dBA|GAB D2E G3 G2:|

%-------------------- TUNE SEPARATOR --------------------%

